Lila_HD/places/scalable/user-trash-symbolic.svg

<?xml version="1.0" encoding="UTF-8"?>
<!-- Created with Inkscape (http://www.inkscape.org/) -->
<svg version="1.1" viewBox="0 0 16 16" xmlns="http://www.w3.org/2000/svg" xmlns:cc="http://creativecommons.org/ns#" xmlns:dc="http://purl.org/dc/elements/1.1/" xmlns:rdf="http://www.w3.org/1999/02/22-rdf-syntax-ns#">
<metadata>
<rdf:RDF>
<cc:Work rdf:about="">
<dc:format>image/svg+xml</dc:format>
<dc:type rdf:resource="http://purl.org/dc/dcmitype/StillImage"/>
<dc:title/>
</cc:Work>
</rdf:RDF>
</metadata>
<path d="m6 0-0.03125 1h-5.9688v3h16v-3h-6.0312l0.03125-1h-4zm1 2h2v1h-2v-1zm-5 3v10h3v-1-0.34375-8.6562h-3zm4 0v8.6562 0.34375 1h1v-1-1-8h-1zm3 0v8 1 1h1v-1-1-8h-1zm2 0v8 1 1h3v-10h-3z" fill="#999" fill-opacity=".91237"/>
<path d="m-11 0-0.03125 1h-5.9688v3h16v-3h-6.0312l0.03125-1zm1 2h2v1h-2zm-5 3v10h12v-10h-3v9h-1v-9h-1v9h-2v-9h-1v9h-1v-9z" fill="#999" fill-opacity=".91237"/>
</svg>

<?xml version="1.0" encoding="UTF-8" standalone="no"?>
<!-- Created with Inkscape (http://www.inkscape.org/) -->

<svg
   xmlns:dc="http://purl.org/dc/elements/1.1/"
   xmlns:cc="http://creativecommons.org/ns#"
   xmlns:rdf="http://www.w3.org/1999/02/22-rdf-syntax-ns#"
   xmlns:svg="http://www.w3.org/2000/svg"
   xmlns="http://www.w3.org/2000/svg"
   xmlns:sodipodi="http://sodipodi.sourceforge.net/DTD/sodipodi-0.dtd"
   xmlns:inkscape="http://www.inkscape.org/namespaces/inkscape"
   version="1.1"
   width="16"
   height="16"
   viewBox="0 0 16 16"
   id="svg2"
   inkscape:version="0.48.3.1 r9886"
   sodipodi:docname="gnome-stock-trash.svg">
  <sodipodi:namedview
     pagecolor="#ffffff"
     bordercolor="#666666"
     borderopacity="1"
     objecttolerance="10"
     gridtolerance="10"
     guidetolerance="10"
     inkscape:pageopacity="0"
     inkscape:pageshadow="2"
     inkscape:window-width="1920"
     inkscape:window-height="1033"
     id="namedview6"
     showgrid="true"
     inkscape:zoom="41.7193"
     inkscape:cx="5.3258931"
     inkscape:cy="7.6542532"
     inkscape:window-x="-2"
     inkscape:window-y="25"
     inkscape:window-maximized="1"
     inkscape:current-layer="svg2"
     inkscape:snap-bbox="true"
     inkscape:bbox-paths="true"
     inkscape:bbox-nodes="true"
     inkscape:snap-bbox-edge-midpoints="true"
     inkscape:snap-bbox-midpoints="true"
     inkscape:object-paths="true"
     inkscape:snap-intersection-paths="true"
     inkscape:object-nodes="true"
     inkscape:snap-smooth-nodes="true"
     inkscape:snap-midpoints="true"
     inkscape:snap-object-midpoints="true"
     inkscape:snap-center="true">
    <inkscape:grid
       type="xygrid"
       id="grid3751" />
  </sodipodi:namedview>
  <metadata
     id="metadata10">
    <rdf:RDF>
      <cc:Work
         rdf:about="">
        <dc:format>image/svg+xml</dc:format>
        <dc:type
           rdf:resource="http://purl.org/dc/dcmitype/StillImage" />
        <dc:title />
      </cc:Work>
    </rdf:RDF>
  </metadata>
  <defs
     id="defs8" />
  <path
     style="fill:#999999;fill-opacity:0.912371168"
     d="M 6 0 L 5.96875 1 L 0 1 L 0 4 L 16 4 L 16 1 L 9.96875 1 L 10 0 L 6 0 z M 7 2 L 9 2 L 9 3 L 7 3 L 7 2 z M 2 5 L 2 15 L 5 15 L 5 14 L 5 13.65625 L 5 5 L 2 5 z M 6 5 L 6 13.65625 L 6 14 L 6 15 L 7 15 L 7 14 L 7 13 L 7 5 L 6 5 z M 9 5 L 9 13 L 9 14 L 9 15 L 10 15 L 10 14 L 10 13 L 10 5 L 9 5 z M 11 5 L 11 13 L 11 14 L 11 15 L 14 15 L 14 5 L 11 5 z "
     id="path2983" />
  <path
     style="fill:#999999;fill-opacity:0.912371168"
     d="M -11,0 -11.03125,1 -17,1 -17,4 -1,4 -1,1 -7.03125,1 -7,0 z m 1,2 2,0 0,1 -2,0 z m -5,3 0,10 12,0 0,-10 -3,0 0,9 -1,0 0,-9 -1,0 0,9 -2,0 0,-9 -1,0 0,9 -1,0 0,-9 z"
     id="path3001"
     inkscape:connector-curvature="0"
     sodipodi:nodetypes="ccccccccccccccccccccccccccccccc" />
</svg>
